X:2202
L:1/8
Q:1/8=160
M:6/8
K:A
 E | A2 A cBA | ecA aec | A2 A cBA | BGE dBG | A2 A cBA | ecA aec | fga ecA | dBG A2 :| e | 
 aga fga | fba gfe | aga fga | bag a2 g | agf ecA | fed cBA | fga ecA | dBG A2 :|

